X: 34335
T: Return To Burton Road
R: jig
M: 6/8
K: Dmajor
|:~d3 faf|gec Ace|dcd AFA|=cB=c EFG|
ded ~f3|gec ABc|dcd AFA|GEA D3:|
|:~d3 ada|gfg ~a3|dcd ada|gef gec|
def ecA|GAB AFG|Adf ecA|1 GEA D3:|2 GEA D2 D||
|:(4DEFG A2B|=cAG A3|dcd efd|ABG FED|
~d3 afd|Bef gag|~f3 ecA|1 GEA D2 A:|2 GEA D3||

